X:093
T: Sall's Delight
N: O'Farrell's Pocket Companion v.2 (Sky ed. p.54)
D: "O'Sullivan Meets O'Farrell" track 9B
M: C
L: 1/8
R: reel
Q: 360
K: D
F2AF dFAF|F2AF BEEG|F2AF dFAF|BGEA FD D2 :|
d2eg fdec|d2eg fd B2|d2eg fdec|dBAG FA D2|
d2eg fdec|dfeg fdB>f|agfe dcBA|Bcde fd d2||
